X:1
T:ChÃ¤nzili-Juiz. 2001  BbEb  ABAC
T:Sepp Lussi. Dirigenten-Notiz: Edi Gasser
C:Unterwalden (CH)
P:ABAC
R:Naturjodel
M:4/4
L:1/4
K:Bb
[P:A] B,>FD>F | D/F/B/c/ d>c | B2Ff | c>BAC | Ffd>c | B3z | 
B,>FD>F | D/F/B/c/ d>c | B2Ff | c>BA F/f/ | d2c2 | B3z  || 
[P:B]  c>BAc | C2Ff | d>cBd | D>BAB | c>BAG | F>CFf | d3c | B3z | 
c>BAc | C2Ff | d>cBd | D>BAB | c>BAG | Ffdc | (B4 | B3)z || 
[K:Eb]
[P:C] B, | E>edc | B>GBe | d>cBd | A2fe | d>cBA | 
c2BD | E>edc | B2zB, | E>edc | B>GBe | 
d>cBd | A2fe | d>cBA | c2BD | E4 | e3z |] 
W:
%W:Reihenfolge: A - B - A - C
W:notiert Edi Gasser. Angaben: Hans Schmid
W:UJV-Naturjodelsammlung: Code-Nr: 56-01
W:http://www.naturjodler.ch/code 56.htm  (with AUDIO)
%September 24, 2018

